/* XPM */
static char *_5ce96ec40f344968fd0ff2039b37d90Ljo2wOx7Z2NxpP2T[] = {
/* columns rows colors chars-per-pixel */
"32 32 179 2 ",
"   c None",
".  c #4B297F",
"X  c #6C267E",
"o  c #39398F",
"O  c #3A3C93",
"+  c #4A2F8E",
"@  c #502A87",
"#  c #5C2C83",
"$  c #552D8B",
"%  c #532581",
"&  c #54328E",
"*  c #4E3290",
"=  c #4D3B9C",
"-  c #533293",
";  c #5B3394",
":  c #503A9B",
">  c #622787",
",  c #632C85",
"<  c #682883",
"1  c #602C8E",
"2  c #6B2C8C",
"3  c #712D87",
"4  c #7A2981",
"5  c #752D8B",
"6  c #7B2D8E",
"7  c #653087",
"8  c #6D308F",
"9  c #61328B",
"0  c #7C328D",
"q  c #74338D",
"w  c #672F96",
"e  c #6E2F90",
"r  c #643197",
"t  c #6F3595",
"y  c #673A9C",
"u  c #6D3E9E",
"i  c #6F339B",
"p  c #743495",
"a  c #7A3293",
"s  c #7A3997",
"d  c #74349B",
"f  c #7C3698",
"g  c #743C9C",
"h  c #7E3B9D",
"j  c #4F3FA3",
"k  c #613DA0",
"l  c #6B3EA1",
"z  c #7B3EA3",
"x  c #753DA1",
"c  c #1C5980",
"v  c #2F4996",
"b  c #2F4F9C",
"n  c #344195",
"m  c #394195",
"M  c #304894",
"N  c #35459B",
"B  c #334C9C",
"V  c #1F6390",
"C  c #246E9F",
"Z  c #354DA1",
"A  c #2E5EA4",
"S  c #2F5DA9",
"D  c #3453A4",
"F  c #3B55A1",
"G  c #325AA5",
"H  c #3557A8",
"J  c #325BA9",
"K  c #395BAD",
"L  c #2E64AB",
"P  c #2E6AAF",
"I  c #3162AB",
"U  c #3962AA",
"Y  c #2E66B0",
"T  c #2D6DB3",
"R  c #3365B1",
"E  c #336CB5",
"W  c #326CB8",
"Q  c #2E72B4",
"!  c #2E73BA",
"~  c #2D7BBD",
"^  c #3371B4",
"/  c #3176BB",
"(  c #357CBD",
")  c #4C449C",
"_  c #46459C",
"`  c #55419E",
"'  c #64409D",
"]  c #4E47A2",
"[  c #4D48A1",
"{  c #5341A4",
"}  c #5A43A3",
"|  c #544BA3",
" . c #5F49A4",
".. c #5E45AA",
"X. c #5D4CA9",
"o. c #4953A5",
"O. c #6543A4",
"+. c #6A43A5",
"@. c #634EA7",
"#. c #6345AA",
"$. c #6C46AE",
"%. c #624AAC",
"&. c #6D4DAC",
"*. c #7143A5",
"=. c #7A46A6",
"-. c #704AA4",
";. c #7347AF",
":. c #7946A9",
">. c #724BAD",
",. c #7C4BAC",
"<. c #6D51AE",
"1. c #6C4AB2",
"2. c #744BB4",
"3. c #7A4AB1",
"4. c #7B4FBA",
"5. c #7751B0",
"6. c #7C51B9",
"7. c #2E7FC2",
"8. c #872D8B",
"9. c #83318D",
"0. c #92318E",
"q. c #852B90",
"w. c #8E2D90",
"e. c #942F92",
"r. c #833392",
"t. c #8D3493",
"y. c #863398",
"u. c #863D9E",
"i. c #893B9B",
"p. c #943694",
"a. c #9A3493",
"s. c #903A93",
"d. c #9F3895",
"f. c #9B369A",
"g. c #963A9C",
"h. c #993D9C",
"j. c #A53596",
"k. c #A33996",
"l. c #A3399B",
"z. c #A93A9A",
"x. c #A3359A",
"c. c #823CA2",
"v. c #883EA0",
"b. c #A13EA2",
"n. c #AB3CA0",
"m. c #96419F",
"M. c #9F439D",
"N. c #A2429D",
"B. c #8642A3",
"V. c #8A42A4",
"C. c #8646AA",
"Z. c #8449AB",
"A. c #9D45A9",
"S. c #9249AE",
"D. c #834DB3",
"F. c #894BB3",
"G. c #824EB9",
"H. c #964DB4",
"J. c #9D4CB5",
"K. c #904FBB",
"L. c #8750BC",
"P. c #8A50B8",
"I. c #9751BA",
"U. c #A742A4",
"Y. c #AB41A3",
"T. c #A04BAE",
"R. c #AC4AA9",
"E. c #A34CB2",
"W. c #2D82BF",
"Q. c #2C84C4",
"!. c #2C89C6",
"~. c #278ACB",
"^. c #2A8BCB",
"/. c #2A8DCD",
"(. c #2A8BCD",
"). c #3385C4",
"_. c #348AC7",
"`. c #3187CA",
"'. c #338ACB",
/* pixels */
"                        t d d d i w 1                           ",
"                    2 p c.c.p t   . @ $ $ &                     ",
"                , 8 h p 2 e p p p t   $ ; ; ; ;                 ",
"            q , 2 s     R.h.0 p a f f       *.y ; -             ",
"          0   , q     U.Y.a.      f u.B.      3.l - -           ",
"        9.0   9.t.g.M.Y.a.        T.E.E.J.H.F.:.3.+.- +         ",
"      9.r.3 6 t.p.s.Y.x.p.p.g.b.U.U.b.g.u.h z   D.2.  * +       ",
"    5 r.a 5 6     N.z.a.4 0.k.z.k.  , , A.S.    3.2.,.F.&       ",
"    5 i.< 5 p.    k.j.  X             % A.E.H.    2.>.F.D.      ",
"    5 a   0.f.  p.j.d.                    T.J.I.P.3.    G.3.    ",
"  7 2     e.l.8.a.a.                        H.H.K.L.6.    3.    ",
"  # 2     w.n.9.8.                            *.D.G.4.2.  ;.$.  ",
"C.# >   i.q.l.r.                              O.#.  2.1.%.O.$.  ",
"Z.9   u.u.6 f.m.                              #.#.X.  %...` #.  ",
",.  g B.V.  y.A.                                %.X.        ..  ",
",.  u z     d V.                                /./.^.~.~.  } { ",
">.-.l =.    r z                               !.c V !./.  : {   ",
"&.5.k   v.  ; l                           ).'.W.C !.^.(.(._ j   ",
"@.<.O.  g V.  O.                        ( U D J / !.Q.Q.(.  =   ",
"  @.&.  y x C.Z.                              v Z R ~ ~ Q.Q.=   ",
"  | X.<.  ' *.:.,.                          S b G J ! Q Q.Q.=   ",
"    | X.    o.O.+.&.                      ~ T D L L T L 7.~     ",
"    O [ ] U E     }  .o.                _.Q.Q   T L A L Q.      ",
"    o O ) F R ^     ` ) F     ).7.T L ).!.Q.      P L Q ~       ",
"      O m   J R I E ( ).'.`.).~ ! Q   ).~   L T Q T T ~ Q       ",
"        N Z D D U B D J J I I       ( ! Q S L T T P T Q         ",
"        n N D Z Z       G I       E T P     Q Q   T P           ",
"            N D K K     I E E E ^ I L     / ~ L S S             ",
"              N Z D H H D G I I I I S ^ / ! L D G               ",
"                    M B B       G R W Y P   B                   ",
"                      n N Z Z D D J J                           ",
"                                                                "
};
